X: 35834
T: Salton O De Mer
R: reel
M: 4/4
K: Dmajor
dfed cABd|ABde fedA|dfed cABd|ABde d3A|
dfed cABd|ABde fedA|dfed cABd|ABde d3c|
Bdgd Adfa|gefd ecdc|Bdgd Adfa|ABde d3c|
Bdgd Adfa|gefd ecdc|Bdgd Adfa|ABde d3A|

